;FLAVOR:Marlin
;TIME:3807
;Filament used: 2.21238m
;Layer height: 0.2
;MINX:13.517
;MINY:15.092
;MINZ:0.2
;MAXX:284.613
;MAXY:283.778
;MAXZ:10.2
;Generated with Cura_SteamEngine 4.2.1
M140 S60
M105
M190 S60
M104 S215
M105
M109 S215
M82 ;absolute extrusion mode
M201 X500.00 Y500.00 Z100.00 E5000.00 ;Setup machine max acceleration
M203 X500.00 Y500.00 Z10.00 E50.00 ;Setup machine max feedrate
M204 P500.00 R1000.00 T500.00 ;Setup Print/Retract/Travel acceleration
M205 X8.00 Y8.00 Z0.40 E5.00 ;Setup Jerk
M220 S100 ;Reset Feedrate
M221 S100 ;Reset Flowrate

G28 ;Home

G92 E0 ;Reset Extruder
G1 Z2.0 F3000 ;Move Z Axis up
G1 X10.1 Y20 Z0.28 F5000.0 ;Move to start position
G1 X10.1 Y200.0 Z0.28 F1500.0 E15 ;Draw the first line
G1 X10.4 Y200.0 Z0.28 F5000.0 ;Move to side a little
G1 X10.4 Y20 Z0.28 F1500.0 E30 ;Draw the second line
G92 E0 ;Reset Extruder
G1 Z2.0 F3000 ;Move Z Axis up

M141 S28
G92 E0
G92 E0
G1 F2700 E-5
;LAYER_COUNT:50
;LAYER:0
M107
;MESH:Part Studio 1 - Cube1cm.stl(7)
G0 F6000 X23.524 Y23.772 Z0.2
;TYPE:WALL-INNER
G1 F2700 E0
G1 F1200 X15.724 Y23.772 E0.28537
G1 X15.724 Y15.972 E0.57074
G1 X23.524 Y15.972 E0.85612
G1 X23.524 Y23.772 E1.14149
G0 F6000 X23.964 Y24.212
G1 F1200 X15.284 Y24.212 E1.45906
G1 X15.284 Y15.532 E1.77662
G1 X23.964 Y15.532 E2.09419
G1 X23.964 Y24.212 E2.41176
G0 F6000 X24.404 Y24.652
;TYPE:WALL-OUTER
G1 F1200 X14.844 Y24.652 E2.76152
G1 X14.844 Y15.092 E3.11129
G1 X24.404 Y15.092 E3.46105
G1 X24.404 Y24.652 E3.81081
G1 F2700 E-1.18919
G1 F600 Z0.4
G0 F6000 X23.094 Y23.342 Z0.4
;TYPE:SKIN
G1 F600 Z0.2
G1 F2700 E3.81081
G1 F1200 X16.154 Y23.342 E4.06472
G1 X16.154 Y16.402 E4.31863
G1 X23.094 Y16.402 E4.57254
G1 X23.094 Y23.342 E4.82644
G1 F2700 E-0.17356
G1 F600 Z0.4
G0 F6000 X22.918 Y16.695 Z0.4
G1 F600 Z0.2
G1 F2700 E4.82644
G1 F1200 X22.799 Y16.577 E4.83258
G0 F6000 X22.177 Y16.577
G1 F1200 X22.918 Y17.317 E4.87089
G0 F6000 X22.918 Y17.94
G1 F1200 X21.555 Y16.577 E4.94141
G0 F6000 X20.933 Y16.577
G1 F1200 X22.918 Y18.562 E5.04412
G0 F6000 X22.918 Y19.184
G1 F1200 X20.31 Y16.577 E5.17903
G0 F6000 X19.688 Y16.577
G1 F1200 X22.918 Y19.806 E5.34613
G0 F6000 X22.918 Y20.429
G1 F1200 X19.066 Y16.577 E5.54543
G0 F6000 X18.444 Y16.577
G1 F1200 X22.918 Y21.051 E5.77692
G0 F6000 X22.918 Y21.673
G1 F1200 X17.821 Y16.577 E6.04062
G0 F6000 X17.199 Y16.577
G1 F1200 X22.918 Y22.295 E6.33649
G0 F6000 X22.918 Y22.918
G1 F1200 X16.577 Y16.577 E6.66458
G0 F6000 X16.329 Y16.952
G1 F1200 X22.542 Y23.164 E6.98602
G0 F6000 X21.92 Y23.164
G1 F1200 X16.329 Y17.574 E7.27528
G0 F6000 X16.329 Y18.196
G1 F1200 X21.298 Y23.164 E7.53235
G0 F6000 X20.675 Y23.164
G1 F1200 X16.329 Y18.818 E7.75722
G0 F6000 X16.329 Y19.441
G1 F1200 X20.053 Y23.164 E7.94987
G0 F6000 X19.431 Y23.164
G1 F1200 X16.329 Y20.063 E8.11034
G0 F6000 X16.329 Y20.685
G1 F1200 X18.809 Y23.164 E8.23864
G0 F6000 X18.186 Y23.164
G1 F1200 X16.329 Y21.307 E8.33472
G0 F6000 X16.329 Y21.93
G1 F1200 X17.564 Y23.164 E8.39859
G0 F6000 X16.942 Y23.164
G1 F1200 X16.329 Y22.552 E8.43028
G1 F2700 E3.43028
G1 F600 Z0.4
;MESH:Part Studio 1 - Cube1cm.stl(1)
G0 F6000 X23.59 Y154.145 Z0.4
;TYPE:WALL-INNER
G1 F600 Z0.2
G1 F2700 E8.43028
G1 F1200 X15.79 Y154.145 E8.71565
G1 X15.79 Y146.345 E9.00103
G1 X23.59 Y146.345 E9.2864
G1 X23.59 Y154.145 E9.57177
G0 F6000 X24.03 Y154.585
G1 F1200 X15.35 Y154.585 E9.88934
G1 X15.35 Y145.905 E10.20691
G1 X24.03 Y145.905 E10.52447
G1 X24.03 Y154.585 E10.84204
G0 F6000 X24.47 Y155.025
;TYPE:WALL-OUTER
G1 F1200 X14.91 Y155.025 E11.19181
G1 X14.91 Y145.465 E11.54157
G1 X24.47 Y145.465 E11.89133
G1 X24.47 Y155.025 E12.2411
G1 F2700 E7.2411
G1 F600 Z0.4
G0 F6000 X23.16 Y153.715 Z0.4
;TYPE:SKIN
G1 F600 Z0.2
G1 F2700 E12.2411
G1 F1200 X16.22 Y153.715 E12.495
G1 X16.22 Y146.775 E12.74891
G1 X23.16 Y146.775 E13.00282
G1 X23.16 Y153.715 E13.25673
G1 F2700 E8.25673
G1 F600 Z0.4
G0 F6000 X22.984 Y147.435 Z0.4
G1 F600 Z0.2
G1 F2700 E13.25673
G1 F1200 X22.499 Y146.95 E13.28182
G0 F6000 X21.877 Y146.95
G1 F1200 X22.984 Y148.057 E13.3391
G0 F6000 X22.984 Y148.679
G1 F1200 X21.254 Y146.95 E13.42858
G0 F6000 X20.632 Y146.95
G1 F1200 X22.984 Y149.302 E13.55028
G0 F6000 X22.984 Y149.924
G1 F1200 X20.01 Y146.95 E13.70415
G0 F6000 X19.388 Y146.95
G1 F1200 X22.984 Y150.546 E13.89021
G0 F6000 X22.984 Y151.168
G1 F1200 X18.765 Y146.95 E14.10848
G0 F6000 X18.143 Y146.95
G1 F1200 X22.984 Y151.791 E14.35896
G0 F6000 X22.984 Y152.413
G1 F1200 X17.521 Y146.95 E14.64162
G0 F6000 X16.899 Y146.95
G1 F1200 X22.984 Y153.035 E14.95646
G0 F6000 X22.865 Y153.538
G1 F1200 X16.395 Y147.069 E15.2912
G0 F6000 X16.395 Y147.691
G1 F1200 X22.242 Y153.538 E15.59372
G0 F6000 X21.62 Y153.538
G1 F1200 X16.395 Y148.313 E15.86407
G0 F6000 X16.395 Y148.935
G1 F1200 X20.998 Y153.538 E16.10223
G0 F6000 X20.375 Y153.538
G1 F1200 X16.395 Y149.558 E16.30816
G0 F6000 X16.395 Y150.18
G1 F1200 X19.753 Y153.538 E16.4819
G0 F6000 X19.131 Y153.538
G1 F1200 X16.395 Y150.802 E16.62346
G0 F6000 X16.395 Y151.424
G1 F1200 X18.509 Y153.538 E16.73284
G0 F6000 X17.886 Y153.538
G1 F1200 X16.395 Y152.047 E16.80999
G0 F6000 X16.395 Y152.669
G1 F1200 X17.264 Y153.538 E16.85495
G0 F6000 X16.642 Y153.538
G1 F1200 X16.395 Y153.291 E16.86773
G1 F2700 E11.86773
G1 F600 Z0.4
;MESH:Part Studio 1 - Cube1cm.stl(5)
G0 F6000 X22.197 Y281.592 Z0.4
;TYPE:WALL-INNER
G1 F600 Z0.2
G1 F2700 E16.86773
G1 F1200 X14.397 Y281.592 E17.1531
G1 X14.397 Y273.792 E17.43848
G1 X22.197 Y273.792 E17.72385
G1 X22.197 Y281.592 E18.00922
G0 F6000 X22.637 Y282.032
G1 F1200 X13.957 Y282.032 E18.32679
G1 X13.957 Y273.352 E18.64436
G1 X22.637 Y273.352 E18.96192
G1 X22.637 Y282.032 E19.27949
G0 F6000 X23.077 Y282.472
;TYPE:WALL-OUTER
G1 F1200 X13.517 Y282.472 E19.62925
G1 X13.517 Y272.912 E19.97902
G1 X23.077 Y272.912 E20.32878
G1 X23.077 Y282.472 E20.67855
G1 F2700 E15.67855
G1 F600 Z0.4
G0 F6000 X21.767 Y281.162 Z0.4
;TYPE:SKIN
G1 F600 Z0.2
G1 F2700 E20.67855
G1 F1200 X14.827 Y281.162 E20.93245
G1 X14.827 Y274.222 E21.18636
G1 X21.767 Y274.222 E21.44027
G1 X21.767 Y281.162 E21.69418
G1 F2700 E16.69418
G1 F600 Z0.4
G0 F6000 X21.591 Y274.848 Z0.4
G1 F600 Z0.2
G1 F2700 E21.69418
G1 F1200 X21.139 Y274.397 E21.71754
G0 F6000 X20.517 Y274.397
G1 F1200 X21.591 Y275.471 E21.77311
G0 F6000 X21.591 Y276.093
G1 F1200 X19.895 Y274.397 E21.86086
G0 F6000 X19.272 Y274.397
G1 F1200 X21.591 Y276.715 E21.98082
G0 F6000 X21.591 Y277.337
G1 F1200 X18.65 Y274.397 E22.13296
G0 F6000 X18.028 Y274.397
G1 F1200 X21.591 Y277.96 E22.31731
G0 F6000 X21.591 Y278.582
G1 F1200 X17.406 Y274.397 E22.53385
G0 F6000 X16.783 Y274.397
G1 F1200 X21.591 Y279.204 E22.78259
G0 F6000 X21.591 Y279.826
G1 F1200 X16.161 Y274.397 E23.06352
G0 F6000 X15.539 Y274.397
G1 F1200 X21.591 Y280.449 E23.37665
G0 F6000 X21.505 Y280.985
G1 F1200 X15.002 Y274.482 E23.71312
G0 F6000 X15.002 Y275.104
G1 F1200 X20.882 Y280.985 E24.01738
G0 F6000 X20.26 Y280.985
G1 F1200 X15.002 Y275.727 E24.28943
G0 F6000 X15.002 Y276.349
G1 F1200 X19.638 Y280.985 E24.5293
G0 F6000 X19.016 Y280.985
G1 F1200 X15.002 Y276.971 E24.73699
G0 F6000 X15.002 Y277.593
G1 F1200 X18.393 Y280.985 E24.91247
G0 F6000 X17.771 Y280.985
G1 F1200 X15.002 Y278.216 E25.05574
G0 F6000 X15.002 Y278.838
G1 F1200 X17.149 Y280.985 E25.16683
G0 F6000 X16.527 Y280.985
G1 F1200 X15.002 Y279.46 E25.24573
G0 F6000 X15.002 Y280.082
G1 F1200 X15.904 Y280.985 E25.29243
G0 F6000 X15.282 Y280.985
G1 F1200 X15.002 Y280.705 E25.30691
G1 F2700 E20.30691
G1 F600 Z0.4
;MESH:Part Studio 1 - Cube1cm.stl(3)
G0 F6000 X146.1 Y282.675 Z0.4
;TYPE:WALL-INNER
G1 F600 Z0.2
G1 F2700 E25.30691
G1 F1200 X146.1 Y274.875 E25.59229
G1 X153.9 Y274.875 E25.87766
G1 X153.9 Y282.675 E26.16303
G1 X146.1 Y282.675 E26.4484
G0 F6000 X145.66 Y283.115
G1 F1200 X145.66 Y274.435 E26.76597
G1 X154.34 Y274.435 E27.08354
G1 X154.34 Y283.115 E27.40111
G1 X145.66 Y283.115 E27.71867
G0 F6000 X145.22 Y283.555
;TYPE:WALL-OUTER
G1 F1200 X145.22 Y273.995 E28.06844
G1 X154.78 Y273.995 E28.4182
G1 X154.78 Y283.555 E28.76796
G1 X145.22 Y283.555 E29.11773
G1 F2700 E24.11773
G1 F600 Z0.4
G0 F6000 X146.53 Y282.245 Z0.4
;TYPE:SKIN
G1 F600 Z0.2
G1 F2700 E29.11773
G1 F1200 X146.53 Y275.305 E29.37164
G1 X153.47 Y275.305 E29.62554
G1 X153.47 Y282.245 E29.87945
G1 X146.53 Y282.245 E30.13336
G0 F6000 X147.039 Y282.068
G1 F1200 X146.705 Y281.734 E30.15064
G0 F6000 X146.705 Y281.112
G1 F1200 X147.661 Y282.068 E30.2001
G0 F6000 X148.283 Y282.068
G1 F1200 X146.705 Y280.49 E30.28175
G0 F6000 X146.705 Y279.867
G1 F1200 X148.906 Y282.068 E30.39563
G0 F6000 X149.528 Y282.068
G1 F1200 X146.705 Y279.245 E30.5417
G0 F6000 X146.705 Y278.623
G1 F1200 X150.15 Y282.068 E30.71994
G0 F6000 X150.772 Y282.068
G1 F1200 X146.705 Y278.001 E30.93037
G0 F6000 X146.705 Y277.378
G1 F1200 X151.395 Y282.068 E31.17304
G0 F6000 X152.017 Y282.068
G1 F1200 X146.705 Y276.756 E31.44788
G0 F6000 X146.705 Y276.134
G1 F1200 X152.639 Y282.068 E31.75491
G0 F6000 X153.261 Y282.068
G1 F1200 X146.705 Y275.512 E32.09412
G0 F6000 X147.295 Y275.48
G1 F1200 X153.294 Y281.478 E32.40449
G0 F6000 X153.294 Y280.856
G1 F1200 X147.918 Y275.48 E32.68265
G0 F6000 X148.54 Y275.48
G1 F1200 X153.294 Y280.234 E32.92862
G0 F6000 X153.294 Y279.611
G1 F1200 X149.162 Y275.48 E33.14239
G0 F6000 X149.785 Y275.48
G1 F1200 X153.294 Y278.989 E33.32394
G0 F6000 X153.294 Y278.367
G1 F1200 X150.407 Y275.48 E33.47332
G0 F6000 X151.029 Y275.48
G1 F1200 X153.294 Y277.745 E33.59051
G0 F6000 X153.294 Y277.122
G1 F1200 X151.651 Y275.48 E33.6755
G0 F6000 X152.274 Y275.48
G1 F1200 X153.294 Y276.5 E33.72827
G0 F6000 X153.294 Y275.878
G1 F1200 X152.896 Y275.48 E33.74886
G1 F2700 E28.74886
G1 F600 Z0.4
;MESH:Part Studio 1 - Cube1cm.stl
G0 F6000 X146.1 Y153.9 Z0.4
;TYPE:WALL-INNER
G1 F600 Z0.2
G1 F2700 E33.74886
G1 F1200 X146.1 Y146.1 E34.03424
G1 X153.9 Y146.1 E34.31961
G1 X153.9 Y153.9 E34.60498
G1 X146.1 Y153.9 E34.89035
G0 F6000 X145.66 Y154.34
G1 F1200 X145.66 Y145.66 E35.20792
G1 X154.34 Y145.66 E35.52549
G1 X154.34 Y154.34 E35.84306
G1 X145.66 Y154.34 E36.16062
G0 F6000 X145.22 Y154.78
;TYPE:WALL-OUTER
G1 F1200 X145.22 Y145.22 E36.51039
G1 X154.78 Y145.22 E36.86015
G1 X154.78 Y154.78 E37.20991
G1 X145.22 Y154.78 E37.55968
G1 F2700 E32.55968
G1 F600 Z0.4
G0 F6000 X146.53 Y153.47 Z0.4
;TYPE:SKIN
G1 F600 Z0.2
G1 F2700 E37.55968
G1 F1200 X146.53 Y146.53 E37.81359
G1 X153.47 Y146.53 E38.06749
G1 X153.47 Y153.47 E38.3214
G1 X146.53 Y153.47 E38.57531
G0 F6000 X147.071 Y153.293
G1 F1200 X146.705 Y152.928 E38.59422
G0 F6000 X146.705 Y152.305
G1 F1200 X147.693 Y153.293 E38.64534
G0 F6000 X148.315 Y153.293
G1 F1200 X146.705 Y151.683 E38.72864
G0 F6000 X146.705 Y151.061
G1 F1200 X148.937 Y153.293 E38.84413
G0 F6000 X149.56 Y153.293
G1 F1200 X146.705 Y150.439 E38.99182
G0 F6000 X146.705 Y149.816
G1 F1200 X150.182 Y153.293 E39.17172
G0 F6000 X150.804 Y153.293
G1 F1200 X146.705 Y149.194 E39.38381
G0 F6000 X146.705 Y148.572
G1 F1200 X151.426 Y153.293 E39.62808
G0 F6000 X152.049 Y153.293
G1 F1200 X146.705 Y147.95 E39.90455
G0 F6000 X146.705 Y147.327
G1 F1200 X152.671 Y153.293 E40.21324
G0 F6000 X153.293 Y153.293
G1 F1200 X146.705 Y146.705 E40.5541
G0 F6000 X147.328 Y146.706
G1 F1200 X153.293 Y152.671 E40.86274
G0 F6000 X153.293 Y152.049
G1 F1200 X147.95 Y146.706 E41.13919
G0 F6000 X148.573 Y146.706
G1 F1200 X153.293 Y151.426 E41.3834
G0 F6000 X153.293 Y150.804
G1 F1200 X149.195 Y146.706 E41.59544
G0 F6000 X149.817 Y146.706
G1 F1200 X153.293 Y150.182 E41.77529
G0 F6000 X153.293 Y149.56
G1 F1200 X150.439 Y146.706 E41.92295
G0 F6000 X151.062 Y146.706
G1 F1200 X153.293 Y148.937 E42.03839
G0 F6000 X153.293 Y148.315
G1 F1200 X151.684 Y146.706 E42.12164
G0 F6000 X152.306 Y146.706
G1 F1200 X153.293 Y147.693 E42.17271
G0 F6000 X153.293 Y147.071
G1 F1200 X152.928 Y146.706 E42.19159
G1 F2700 E37.19159
G1 F600 Z0.4
;MESH:Part Studio 1 - Cube1cm.stl(4)
G0 F6000 X146.1 Y25.93 Z0.4
;TYPE:WALL-INNER
G1 F600 Z0.2
G1 F2700 E42.19159
G1 F1200 X146.1 Y18.13 E42.47696
G1 X153.9 Y18.13 E42.76234
G1 X153.9 Y25.93 E43.04771
G1 X146.1 Y25.93 E43.33308
G0 F6000 X145.66 Y26.37
G1 F1200 X145.66 Y17.69 E43.65065
G1 X154.34 Y17.69 E43.96821
G1 X154.34 Y26.37 E44.28578
G1 X145.66 Y26.37 E44.60335
G0 F6000 X145.22 Y26.81
;TYPE:WALL-OUTER
G1 F1200 X145.22 Y17.25 E44.95311
G1 X154.78 Y17.25 E45.30288
G1 X154.78 Y26.81 E45.65264
G1 X145.22 Y26.81 E46.0024
G1 F2700 E41.0024
G1 F600 Z0.4
G0 F6000 X146.53 Y25.5 Z0.4
;TYPE:SKIN
G1 F600 Z0.2
G1 F2700 E46.0024
G1 F1200 X146.53 Y18.56 E46.25631
G1 X153.47 Y18.56 E46.51022
G1 X153.47 Y25.5 E46.76413
G1 X146.53 Y25.5 E47.01804
G0 F6000 X147.285 Y25.323
G1 F1200 X146.705 Y24.743 E47.04805
G0 F6000 X146.705 Y24.121
G1 F1200 X147.907 Y25.323 E47.11024
G0 F6000 X148.529 Y25.323
G1 F1200 X146.705 Y23.499 E47.20461
G0 F6000 X146.705 Y22.877
G1 F1200 X149.152 Y25.323 E47.3312
G0 F6000 X149.774 Y25.323
G1 F1200 X146.705 Y22.254 E47.48999
G0 F6000 X146.705 Y21.632
G1 F1200 X150.396 Y25.323 E47.68096
G0 F6000 X151.018 Y25.323
G1 F1200 X146.705 Y21.01 E47.90412
G0 F6000 X146.705 Y20.388
G1 F1200 X151.641 Y25.323 E48.15949
G0 F6000 X152.263 Y25.323
G1 F1200 X146.705 Y19.765 E48.44706
G0 F6000 X146.705 Y19.143
G1 F1200 X152.885 Y25.323 E48.76682
G0 F6000 X153.292 Y25.108
G1 F1200 X146.92 Y18.736 E49.09651
G0 F6000 X147.542 Y18.736
G1 F1200 X153.292 Y24.486 E49.39402
G0 F6000 X153.292 Y23.864
G1 F1200 X148.165 Y18.736 E49.65932
G0 F6000 X148.787 Y18.736
G1 F1200 X153.292 Y23.241 E49.89241
G0 F6000 X153.292 Y22.619
G1 F1200 X149.409 Y18.736 E50.09332
G0 F6000 X150.031 Y18.736
G1 F1200 X153.292 Y21.997 E50.26204
G0 F6000 X153.292 Y21.375
G1 F1200 X150.654 Y18.736 E50.39856
G0 F6000 X151.276 Y18.736
G1 F1200 X153.292 Y20.752 E50.50287
G0 F6000 X153.292 Y20.13
G1 F1200 X151.898 Y18.736 E50.575
G0 F6000 X152.52 Y18.736
G1 F1200 X153.292 Y19.508 E50.61494
G0 F6000 X153.292 Y18.886
G1 F1200 X153.143 Y18.736 E50.62268
G1 F2700 E45.62268
G1 F600 Z0.4
;MESH:Part Studio 1 - Cube1cm.stl(8)
G0 F6000 X275.933 Y25.555 Z0.4
;TYPE:WALL-INNER
G1 F600 Z0.2
G1 F2700 E50.62268
G1 F1200 X275.933 Y17.755 E50.90805
G1 X283.733 Y17.755 E51.19342
G1 X283.733 Y25.555 E51.47879
G1 X275.933 Y25.555 E51.76416
G0 F6000 X275.493 Y25.995
G1 F1200 X275.493 Y17.315 E52.08173
G1 X284.173 Y17.315 E52.3993
G1 X284.173 Y25.995 E52.71687
G1 X275.493 Y25.995 E53.03444
G0 F6000 X275.053 Y26.435
;TYPE:WALL-OUTER
G1 F1200 X275.053 Y16.875 E53.3842
G1 X284.613 Y16.875 E53.73396
G1 X284.613 Y26.435 E54.08373
G1 X275.053 Y26.435 E54.43349
G1 F2700 E49.43349
G1 F600 Z0.4
G0 F6000 X276.363 Y25.125 Z0.4
;TYPE:SKIN
G1 F600 Z0.2
G1 F2700 E54.43349
G1 F1200 X276.363 Y18.185 E54.6874
G1 X283.303 Y18.185 E54.94131
G1 X283.303 Y25.125 E55.19521
G1 X276.363 Y25.125 E55.44912
G0 F6000 X276.961 Y24.948
G1 F1200 X276.538 Y24.525 E55.47101
G0 F6000 X276.538 Y23.903
G1 F1200 X277.583 Y24.948 E55.52508
G0 F6000 X278.206 Y24.948
G1 F1200 X276.538 Y23.28 E55.61138
G0 F6000 X276.538 Y22.658
G1 F1200 X278.828 Y24.948 E55.72987
G0 F6000 X279.45 Y24.948
G1 F1200 X276.538 Y22.036 E55.88053
G0 F6000 X276.538 Y21.414
G1 F1200 X280.072 Y24.948 E56.06339
G0 F6000 X280.695 Y24.948
G1 F1200 X276.538 Y20.791 E56.27847
G0 F6000 X276.538 Y20.169
G1 F1200 X281.317 Y24.948 E56.52574
G0 F6000 X281.939 Y24.948
G1 F1200 X276.538 Y19.547 E56.80519
G0 F6000 X276.538 Y18.925
G1 F1200 X282.561 Y24.948 E57.11682
G0 F6000 X283.126 Y24.89
G1 F1200 X276.596 Y18.361 E57.45467
G0 F6000 X277.219 Y18.361
G1 F1200 X283.126 Y24.268 E57.7603
G0 F6000 X283.126 Y23.646
G1 F1200 X277.841 Y18.361 E58.03375
G0 F6000 X278.463 Y18.361
G1 F1200 X283.126 Y23.024 E58.27501
G0 F6000 X283.126 Y22.401
G1 F1200 X279.085 Y18.361 E58.48407
G0 F6000 X279.708 Y18.361
G1 F1200 X283.126 Y21.779 E58.66092
G0 F6000 X283.126 Y21.157
G1 F1200 X280.33 Y18.361 E58.80559
G0 F6000 X280.952 Y18.361
G1 F1200 X283.126 Y20.535 E58.91807
G0 F6000 X283.126 Y19.912
G1 F1200 X281.574 Y18.361 E58.99835
G0 F6000 X282.197 Y18.361
G1 F1200 X283.126 Y19.29 E59.04641
G0 F6000 X283.126 Y18.668
G1 F1200 X282.819 Y18.361 E59.0623
G1 F2700 E54.0623
G1 F600 Z0.4
;MESH:Part Studio 1 - Cube1cm.stl(2)
G0 F6000 X275.873 Y153.9 Z0.4
;TYPE:WALL-INNER
G1 F600 Z0.2
G1 F2700 E59.0623
G1 F1200 X275.873 Y146.1 E59.34767
